X:1
T:Mélodies pour Piano et Chant (Chansons populaires)
T:Erôtylon (Chants de la Kitharède, No.2)
T:11. Erôtylon (Chants de la Kitharède, No.2) 
T:Augusta Holmès
T:Mélodies pour Piano et Chant 
T:(Holmès) 
T:Creative Commons copyright waiver (CC0 1.0 Universal)
T:Creative Commons copyright waiver (CC0 1.0 Universal)
T:Creative Commons copyright waiver (CC0 1.0 Universal)
T:Creative Commons copyright waiver (CC0 1.0 Universal)
T:Creative Commons copyright waiver (CC0 1.0 Universal)
C:Augusta Holmès
Z:Augusta Holmès
Z:Creative Commons copyright waiver (CC0 1.0 Universal)
L:1/8
Q:1/4=100
M:4/4
K:C
V:1 treble nm="Chant\nVoice"
V:1
"^(Pour Soprano)""^Andantino" z8 | z!<(! G G G G G A!<)! A ||[M:3/4]!>(! (B2 A2)!>)! G2 || %3
w: |Beau Ba- te- lier de My- ti-|lè- * ne,|
[M:4/4] z!<(! G A c!<)! d c/ E/ (G D/) E/ | C2- C z z4 | z!<(! G G G G G A!<)! A || %6
w: Ah! que de pei- ne J'en- du- re pour|toi! . . . *|De ta beau- té mon âme est|
[M:3/4]!>(! (B2 A2)!>)! G2 ||[M:4/4] z8 | z8 | z8 ||[M:3/4] z6 ||[M:4/4] z8 ||[M:3/4] z6 || %13
w: plei- * ne!|||||||
[M:4/4] z8 ||[M:3/4] z6 ||[M:4/4] z8 ||[M:2/4] z4 ||[M:4/4] z8 | z8 | z8 ||[M:2/4] z4 || %21
w: ||||||||
[M:4/4] z8 ||[M:3/4] z6 ||[M:4/4] z8 | z8 | z8 ||[M:3/4] z6 ||[M:4/4] z8 | z8 | z8 ||[M:3/4] z6 || %31
w: ||||||||||
[M:4/4] z8 ||[M:3/4] z6 ||[M:4/4] z8 ||[M:3/4] z6 ||[M:4/4] z8 ||[M:2/4] z4 ||[M:4/4] z8 | z8 | %39
w: ||||||||
 z8 ||[M:2/4] z4 | z4 |] %42
w: |||

